assets/icons/icon-ig.svg

<svg width="21" height="22" viewBox="0 0 21 22" fill="none" xmlns="http://www.w3.org/2000/svg">
<path d="M10.5047 5.60928C7.52341 5.60928 5.11873 8.01396 5.11873 10.9952C5.11873 13.9765 7.52341 16.3812 10.5047 16.3812C13.4859 16.3812 15.8906 13.9765 15.8906 10.9952C15.8906 8.01396 13.4859 5.60928 10.5047 5.60928ZM10.5047 14.4968C8.5781 14.4968 7.0031 12.9265 7.0031 10.9952C7.0031 9.06396 8.57341 7.49365 10.5047 7.49365C12.4359 7.49365 14.0062 9.06396 14.0062 10.9952C14.0062 12.9265 12.4312 14.4968 10.5047 14.4968ZM17.3672 5.38896C17.3672 6.0874 16.8047 6.64522 16.1109 6.64522C15.4125 6.64522 14.8547 6.08271 14.8547 5.38896C14.8547 4.69521 15.4172 4.13271 16.1109 4.13271C16.8047 4.13271 17.3672 4.69521 17.3672 5.38896ZM20.9344 6.66397C20.8547 4.98115 20.4703 3.49053 19.2375 2.2624C18.0094 1.03428 16.5187 0.649902 14.8359 0.565527C13.1015 0.46709 7.9031 0.46709 6.16873 0.565527C4.4906 0.645215 2.99998 1.02959 1.76716 2.25771C0.534351 3.48584 0.154663 4.97646 0.0702881 6.65928C-0.0281494 8.39365 -0.0281494 13.5921 0.0702881 15.3265C0.149976 17.0093 0.534351 18.4999 1.76716 19.728C2.99998 20.9562 4.48591 21.3405 6.16873 21.4249C7.9031 21.5233 13.1015 21.5233 14.8359 21.4249C16.5187 21.3452 18.0094 20.9608 19.2375 19.728C20.4656 18.4999 20.85 17.0093 20.9344 15.3265C21.0328 13.5921 21.0328 8.39834 20.9344 6.66397ZM18.6937 17.1874C18.3281 18.1062 17.6203 18.814 16.6969 19.1843C15.314 19.7327 12.0328 19.6062 10.5047 19.6062C8.97654 19.6062 5.6906 19.728 4.31248 19.1843C3.39373 18.8187 2.68591 18.1108 2.3156 17.1874C1.76716 15.8046 1.89373 12.5233 1.89373 10.9952C1.89373 9.46709 1.77185 6.18115 2.3156 4.80303C2.68123 3.88428 3.38904 3.17646 4.31248 2.80615C5.69529 2.25771 8.97654 2.38428 10.5047 2.38428C12.0328 2.38428 15.3187 2.2624 16.6969 2.80615C17.6156 3.17178 18.3234 3.87959 18.6937 4.80303C19.2422 6.18584 19.1156 9.46709 19.1156 10.9952C19.1156 12.5233 19.2422 15.8093 18.6937 17.1874Z" fill="#9CA3AF"/>
</svg>

<?xml version="1.0" encoding="utf-8"?>
<!-- Generator: Adobe Illustrator 24.1.1, SVG Export Plug-In . SVG Version: 6.00 Build 0)  -->
<svg version="1.1" id="Layer_2_1_" xmlns="http://www.w3.org/2000/svg" xmlns:xlink="http://www.w3.org/1999/xlink" x="0px" y="0px"
	 viewBox="0 0 21 22" style="enable-background:new 0 0 21 22;" xml:space="preserve">
<style type="text/css">
	.st0{fill:#9CA3AF;}
</style>
<path class="st0" d="M10.5,5.6c-3,0-5.4,2.4-5.4,5.4c0,3,2.4,5.4,5.4,5.4c3,0,5.4-2.4,5.4-5.4C15.9,8,13.5,5.6,10.5,5.6z M10.5,14.5
	C8.6,14.5,7,12.9,7,11c0-1.9,1.6-3.5,3.5-3.5c1.9,0,3.5,1.6,3.5,3.5C14,12.9,12.4,14.5,10.5,14.5z M17.4,5.4c0,0.7-0.6,1.3-1.3,1.3
	c-0.7,0-1.3-0.6-1.3-1.3s0.6-1.3,1.3-1.3C16.8,4.1,17.4,4.7,17.4,5.4z M20.9,6.7c-0.1-1.7-0.5-3.2-1.7-4.4C18,1,16.5,0.7,14.8,0.6
	c-1.7-0.1-6.9-0.1-8.7,0C4.5,0.7,3,1,1.8,2.3C0.5,3.5,0.2,5,0.1,6.7C0,8.4,0,13.6,0.1,15.3c0.1,1.7,0.5,3.2,1.7,4.4
	C3,21,4.5,21.3,6.2,21.4c1.7,0.1,6.9,0.1,8.7,0c1.7-0.1,3.2-0.5,4.4-1.7c1.2-1.2,1.6-2.7,1.7-4.4C21,13.6,21,8.4,20.9,6.7z
	 M18.7,17.2c-0.4,0.9-1.1,1.6-2,2c-1.4,0.5-4.7,0.4-6.2,0.4c-1.5,0-4.8,0.1-6.2-0.4c-0.9-0.4-1.6-1.1-2-2c-0.5-1.4-0.4-4.7-0.4-6.2
	c0-1.5-0.1-4.8,0.4-6.2c0.4-0.9,1.1-1.6,2-2C5.7,2.3,9,2.4,10.5,2.4c1.5,0,4.8-0.1,6.2,0.4c0.9,0.4,1.6,1.1,2,2
	c0.5,1.4,0.4,4.7,0.4,6.2C19.1,12.5,19.2,15.8,18.7,17.2z"/>
</svg>
